X:21
T:163. Christmas Eve
C:composed by Tommy Coen
S:Mike Rafferty
Z:Lesl
M:C|
L:1/8
K:G
GE|:D2DE ~G3A|B2 eB ABG2|ABGE DBDE|GABG AEGE|
DADE ~G3A|B2 dB ABGA|B{c}A{G}A2 G~E3|1Az GE ~G3E:|2 ABGE ~G3A|
|BAB{c}d edeg|a{b}age g2 eg|a{b}age ~g3e|dedB ABGA|
BGBd edeg|a{b}age g2 eg|a{b}age d2 BG|ABGE ~G3A|
|BGBd edeg|a{b}age g2 eg|a{b}age gage|dedB A2 GA|
BA (3Bcd edeg|a{b}age g2 eg|a{b}age d2 BG|ABGE ~G3A||
|:B~G3 D2 GB|d~g3 egd2|BG{A}GE GBAG|EA{c}AG A2 GA|
B~G3 D2 GB|d~g3 egd2|bgag egdB|1 A2 GE ~G3A:|2 A2 GE G4||


